!!!OTL: 'SASS A NAEHTERIN UND SIE NAEHT
!!!ARE: Europa, Mitteleuropa, Deutschland, Kuhlaendchen
!!!SCT: Z0040
!!!YEM: Copyright 1995, estate of Helmut Schaffrath.
**kern
*ICvox
*Ivox
*M2/4
*k[b-e-]
*g:
{8g
8g
16g
16g
8g
=1
4cc
4a
=2
4b-
4r}
=3
{8cc
8dd
16ee-
16ee-
8dd
=4
8cc
8cc
8cc}
{8fn
=5
8g
8a
8b-
8dd
=6
8.a
16a
4fn
=7
4g
8r}
{8dd
=8
8.cc
16cc
4fn
=9
4g
4r}
==
!!!AGN: Sagen - Lied, Romanze
!!!ONB: ESAC (Essen Associative Code) Database: ZUCCAL
!!!AMT: simple duple
!!!AIN: vox
!!!EED: Helmut Schaffrath
!!!EEV: 1.0
*-
